skin/frontend/rwd/dhh/images/fast_delivery_truck.svg

<?xml version="1.0" encoding="UTF-8" standalone="no"?>
<!-- Generator: Adobe Illustrator 16.0.0, SVG Export Plug-In . SVG Version: 6.00 Build 0)  -->
<!DOCTYPE svg  PUBLIC '-//W3C//DTD SVG 1.1//EN'  'http://www.w3.org/Graphics/SVG/1.1/DTD/svg11.dtd'>
<svg id="Capa_1" style="enable-background:new 0 0 612 612" xmlns="http://www.w3.org/2000/svg" xml:space="preserve" height="512px" viewBox="0 0 612 612" width="512px" version="1.1" y="0px" x="0px" xmlns:xlink="http://www.w3.org/1999/xlink">
	<path d="m391.9 259.86c-0.737-6.115-3.061-11.692-6.633-16.349l24.524-152.2c0.913-5.663-2.72-11.062-8.308-12.353l-0.274-0.062c-5.588-1.291-11.219 1.971-12.882 7.46l-44.676 147.54c-11.01 5.536-18.653 16.821-18.653 29.964 0 18.558 15.091 33.658 33.648 33.658 3.458 0 6.728-0.675 9.869-1.647l93.334 48.503c5.135 2.668 11.456 1.002 14.607-3.852l0.141-0.217c3.152-4.852 2.104-11.305-2.424-14.91l-82.28-65.53zm-49.88 4.01c0-9.163 7.458-16.621 16.621-16.621 9.171 0 16.629 7.458 16.629 16.621 0 9.17-7.458 16.629-16.629 16.629-9.16 0-16.62-7.46-16.62-16.63zm269.98 0c0 112.66-73.93 208.33-175.81 241.17l-0.005-36.076c82.756-31.396 141.76-111.47 141.76-205.09 0-120.92-98.38-219.3-219.3-219.3s-219.3 98.379-219.3 219.3c0 12.13 1.034 24.019 2.938 35.62h-34.441c-1.646-11.646-2.554-23.527-2.554-35.62 0-139.7 113.65-253.36 253.36-253.36 139.7 0.004 253.35 113.66 253.35 253.36zm-209.19 180.53l-77.99-77.139c-4.938-4.939-11.664-7.664-18.561-7.664h-39.336v-14.729c0-10.984-8.939-19.838-19.923-19.838h-227.16c-10.983 0-19.838 8.854-19.838 19.838v132.82h410.64v-14.473c0-7.07-2.81-13.88-7.83-18.82zm-33.97 2.55h-75.521c-1.703 0-3.065-1.363-3.065-3.066v-58.322c0-1.703 1.361-3.066 3.065-3.066h14.389c0.767 0 1.618 0.342 2.214 0.852l61.047 58.324c2.04 1.88 0.68 5.29-2.13 5.29zm41.81 41.71v43.941c0 10.961-8.886 19.848-19.848 19.848h-21.237c-3.837-26.332-26.53-46.576-53.919-46.576-27.325 0-50.017 20.244-53.854 46.576h-107.64c-3.837-26.332-26.53-46.576-53.854-46.576s-50.017 20.244-53.854 46.576h-26.598c-10.962 0-19.848-8.89-19.848-19.85v-43.94h410.65zm-94.94 30.49c-22.732 0-41.208 18.391-41.208 41.123 0 22.734 18.476 41.211 41.208 41.211 22.733 0 41.124-18.477 41.124-41.211 0-22.73-18.39-41.12-41.12-41.12zm0 61.73c-11.408 0-20.604-9.195-20.604-20.605 0-11.324 9.195-20.604 20.604-20.604 11.324 0 20.52 9.279 20.52 20.604 0 11.41-9.2 20.6-20.52 20.6zm-215.41-61.73c-22.732 0-41.209 18.391-41.209 41.123 0 22.734 18.477 41.211 41.209 41.211 22.733 0 41.124-18.477 41.124-41.211 0-22.73-18.39-41.12-41.12-41.12zm0 61.73c-11.409 0-20.604-9.195-20.604-20.605 0-11.324 9.195-20.604 20.604-20.604 11.324 0 20.604 9.279 20.604 20.604 0 11.41-9.28 20.6-20.6 20.6z" fill="#595959"/>
</svg>

<?xml version="1.0" encoding="iso-8859-1"?>
<!-- Generator: Adobe Illustrator 16.0.0, SVG Export Plug-In . SVG Version: 6.00 Build 0)  -->
<!DOCTYPE svg PUBLIC "-//W3C//DTD SVG 1.1//EN" "http://www.w3.org/Graphics/SVG/1.1/DTD/svg11.dtd">
<svg xmlns="http://www.w3.org/2000/svg" xmlns:xlink="http://www.w3.org/1999/xlink" version="1.1" id="Capa_1" x="0px" y="0px" width="512px" height="512px" viewBox="0 0 612 612" style="enable-background:new 0 0 612 612;" xml:space="preserve">
<g>
	<path d="M391.897,259.865c-0.737-6.115-3.061-11.692-6.633-16.349l24.524-152.198c0.913-5.663-2.72-11.062-8.308-12.353   l-0.274-0.062c-5.588-1.291-11.219,1.971-12.882,7.46l-44.676,147.543c-11.01,5.536-18.653,16.821-18.653,29.964   c0,18.558,15.091,33.658,33.648,33.658c3.458,0,6.728-0.675,9.869-1.647l93.334,48.503c5.135,2.668,11.456,1.002,14.607-3.852   l0.141-0.217c3.152-4.852,2.104-11.305-2.424-14.91L391.897,259.865z M342.023,263.87c0-9.163,7.458-16.621,16.621-16.621   c9.171,0,16.629,7.458,16.629,16.621c0,9.17-7.458,16.629-16.629,16.629C349.481,280.499,342.023,273.041,342.023,263.87z    M612,263.87c0,112.658-73.93,208.333-175.809,241.169l-0.005-36.076c82.756-31.396,141.757-111.467,141.757-205.093   c0-120.92-98.38-219.299-219.299-219.299c-120.92,0-219.299,98.379-219.299,219.299c0,12.13,1.034,24.019,2.938,35.62h-34.441   c-1.646-11.646-2.554-23.527-2.554-35.62c0-139.703,113.653-253.356,253.356-253.356C498.347,10.514,612,124.167,612,263.87z    M402.81,444.398l-77.99-77.139c-4.938-4.939-11.664-7.664-18.561-7.664h-39.336v-14.729c0-10.984-8.939-19.838-19.923-19.838   H19.841c-10.983,0-19.838,8.854-19.838,19.838v132.82h410.641v-14.473C410.643,456.148,407.833,449.336,402.81,444.398z    M368.838,446.953h-75.521c-1.703,0-3.065-1.363-3.065-3.066v-58.322c0-1.703,1.361-3.066,3.065-3.066h14.389   c0.767,0,1.618,0.342,2.214,0.852l61.047,58.324C373.01,443.545,371.647,446.953,368.838,446.953z M410.652,488.66v43.941   c0,10.961-8.886,19.848-19.848,19.848h-21.237c-3.837-26.332-26.53-46.576-53.919-46.576c-27.325,0-50.017,20.244-53.854,46.576   H154.151c-3.837-26.332-26.53-46.576-53.854-46.576c-27.324,0-50.017,20.244-53.854,46.576H19.848   C8.886,552.447,0,543.562,0,532.602V488.66H410.652z M315.709,519.152c-22.732,0-41.208,18.391-41.208,41.123   c0,22.734,18.476,41.211,41.208,41.211c22.733,0,41.124-18.477,41.124-41.211C356.833,537.543,338.442,519.152,315.709,519.152z    M315.709,580.881c-11.408,0-20.604-9.195-20.604-20.605c0-11.324,9.195-20.604,20.604-20.604c11.324,0,20.52,9.279,20.52,20.604   C336.229,571.686,327.033,580.881,315.709,580.881z M100.3,519.152c-22.732,0-41.209,18.391-41.209,41.123   c0,22.734,18.477,41.211,41.209,41.211c22.733,0,41.124-18.477,41.124-41.211C141.424,537.543,123.033,519.152,100.3,519.152z    M100.3,580.881c-11.409,0-20.604-9.195-20.604-20.605c0-11.324,9.195-20.604,20.604-20.604c11.324,0,20.604,9.279,20.604,20.604   C120.904,571.686,111.624,580.881,100.3,580.881z" fill="#595959"/>
</g>
<g>
</g>
<g>
</g>
<g>
</g>
<g>
</g>
<g>
</g>
<g>
</g>
<g>
</g>
<g>
</g>
<g>
</g>
<g>
</g>
<g>
</g>
<g>
</g>
<g>
</g>
<g>
</g>
<g>
</g>
</svg>
